flaticon/business/box-3.svg

<svg xmlns="http://www.w3.org/2000/svg" width="32" height="32" viewBox="0 0 24 24">
    <path d="M 20.195312 0.597656 L 19.304688 0.722656 L 19.449219 0 L 5.085938 0 L 4.921875 0.660156 C 4.742188 0.589844 4.519531 0.503906 4.304688 0.417969 L 3.992188 0.296875 L 0.484375 5.914062 L 0.902344 7.175781 C 0.800781 7.125 0.695312 7.066406 0.585938 7.011719 L 0 6.707031 L 0 12.746094 C 0 13.097656 0.121094 13.441406 0.34375 13.71875 C 0.839844 14.324219 1.289062 14.875 1.609375 15.265625 L 1.71875 15.398438 L 1.890625 15.410156 C 2.265625 15.4375 2.644531 15.464844 3.003906 15.488281 L 1.855469 15.945312 L 0.0859375 21 C 0.0273438 21.164062 0 21.332031 0 21.507812 L 0 22.464844 C 0 23.308594 0.6875 24 1.535156 24 L 10.042969 24 C 10.160156 24 10.28125 23.984375 10.398438 23.957031 C 12.988281 23.339844 15.375 22.757812 16.386719 22.511719 L 16.609375 22.457031 L 16.675781 22.234375 C 16.714844 22.101562 16.753906 21.964844 16.792969 21.832031 L 16.992188 22.523438 L 19.96875 23.863281 C 20.167969 23.953125 20.378906 24 20.597656 24 L 22.464844 24 C 23.3125 24 24 23.308594 24 22.464844 L 24 19.53125 C 24 19.324219 23.960938 19.121094 23.871094 18.914062 L 21.832031 14.628906 C 21.828125 14.605469 21.820312 14.582031 21.816406 14.554688 L 21.765625 14.382812 L 20.605469 13.828125 L 21.753906 13.683594 L 21.847656 13.480469 C 21.878906 13.417969 21.90625 13.367188 21.941406 13.324219 L 23.652344 11.234375 C 23.875 10.960938 24 10.613281 24 10.261719 L 24 6.683594 Z M 18.472656 0.800781 L 18.296875 1.675781 L 19.792969 1.460938 L 22.878906 6.398438 L 14.800781 6.398438 L 14.800781 0.800781 Z M 12 0.800781 L 14 0.800781 L 14 6.398438 L 10 6.398438 L 10 0.800781 Z M 10 7.199219 L 10.398438 7.199219 C 10.398438 7.421875 10.578125 7.601562 10.800781 7.601562 C 11.019531 7.601562 11.199219 7.421875 11.199219 7.199219 L 12.800781 7.199219 C 12.800781 7.421875 12.980469 7.601562 13.199219 7.601562 C 13.421875 7.601562 13.601562 7.421875 13.601562 7.199219 L 14 7.199219 L 14 13.433594 L 13.601562 13.035156 L 12 14.632812 L 10.398438 13.035156 L 10 13.433594 Z M 4.320312 1.285156 C 4.71875 1.441406 5.054688 1.574219 5.054688 1.574219 L 5.476562 1.738281 L 5.710938 0.800781 L 9.199219 0.800781 L 9.199219 6.398438 L 1.488281 6.398438 L 1.359375 6.019531 Z M 23.035156 10.726562 L 21.324219 12.816406 C 21.292969 12.855469 21.261719 12.898438 21.230469 12.941406 L 17.796875 13.371094 L 21.09375 14.949219 C 21.097656 14.957031 21.101562 14.964844 21.105469 14.972656 L 23.140625 19.242188 C 23.179688 19.335938 23.199219 19.429688 23.199219 19.53125 L 23.199219 22.464844 C 23.199219 22.871094 22.871094 23.199219 22.464844 23.199219 L 20.597656 23.199219 C 20.496094 23.199219 20.394531 23.179688 20.296875 23.136719 L 17.660156 21.945312 L 16.808594 18.980469 L 16.417969 20.285156 C 16.417969 20.285156 16.183594 21.054688 15.972656 21.789062 C 14.863281 22.0625 12.625 22.605469 10.210938 23.179688 C 10.15625 23.191406 10.097656 23.199219 10.042969 23.199219 L 1.535156 23.199219 C 1.484375 23.199219 1.433594 23.195312 1.382812 23.183594 L 2.28125 22.28125 C 2.4375 22.125 2.4375 21.875 2.28125 21.71875 C 2.125 21.5625 1.875 21.5625 1.71875 21.71875 L 0.816406 22.617188 C 0.804688 22.566406 0.800781 22.515625 0.800781 22.464844 L 0.800781 21.507812 C 0.800781 21.425781 0.8125 21.34375 0.839844 21.265625 L 2.488281 16.554688 L 6.613281 14.90625 L 4.824219 14.800781 C 4.824219 14.800781 3.460938 14.71875 2.121094 14.625 C 1.808594 14.246094 1.40625 13.753906 0.964844 13.210938 C 0.859375 13.082031 0.800781 12.914062 0.800781 12.746094 L 0.800781 8.027344 C 1.160156 8.21875 1.410156 8.351562 1.410156 8.351562 L 2.300781 8.832031 L 1.753906 7.199219 L 9.199219 7.199219 L 9.199219 15.367188 L 10.398438 14.164062 L 12 15.765625 L 13.601562 14.164062 L 14.800781 15.367188 L 14.800781 7.199219 L 23.199219 7.199219 L 23.199219 10.261719 C 23.199219 10.429688 23.140625 10.597656 23.035156 10.726562 Z M 23.035156 10.726562"/>
    <path d="M12.398438 1.199219C12.398438 1.421875 12.222656 1.601562 12 1.601562 11.777344 1.601562 11.601562 1.421875 11.601562 1.199219 11.601562.980469 11.777344.800781 12 .800781 12.222656.800781 12.398438.980469 12.398438 1.199219zM11.199219 2.398438C11.199219 2.621094 11.019531 2.800781 10.800781 2.800781 10.578125 2.800781 10.398438 2.621094 10.398438 2.398438 10.398438 2.179688 10.578125 2 10.800781 2 11.019531 2 11.199219 2.179688 11.199219 2.398438zM11.199219 4.800781C11.199219 5.019531 11.019531 5.199219 10.800781 5.199219 10.578125 5.199219 10.398438 5.019531 10.398438 4.800781 10.398438 4.578125 10.578125 4.398438 10.800781 4.398438 11.019531 4.398438 11.199219 4.578125 11.199219 4.800781zM12.398438 3.601562C12.398438 3.820312 12.222656 4 12 4 11.777344 4 11.601562 3.820312 11.601562 3.601562 11.601562 3.378906 11.777344 3.199219 12 3.199219 12.222656 3.199219 12.398438 3.378906 12.398438 3.601562zM13.601562 2.398438C13.601562 2.621094 13.421875 2.800781 13.199219 2.800781 12.980469 2.800781 12.800781 2.621094 12.800781 2.398438 12.800781 2.179688 12.980469 2 13.199219 2 13.421875 2 13.601562 2.179688 13.601562 2.398438zM13.601562 4.800781C13.601562 5.019531 13.421875 5.199219 13.199219 5.199219 12.980469 5.199219 12.800781 5.019531 12.800781 4.800781 12.800781 4.578125 12.980469 4.398438 13.199219 4.398438 13.421875 4.398438 13.601562 4.578125 13.601562 4.800781zM12.398438 6C12.398438 6.222656 12.222656 6.398438 12 6.398438 11.777344 6.398438 11.601562 6.222656 11.601562 6 11.601562 5.777344 11.777344 5.601562 12 5.601562 12.222656 5.601562 12.398438 5.777344 12.398438 6zM11.199219 9.601562C11.199219 9.820312 11.019531 10 10.800781 10 10.578125 10 10.398438 9.820312 10.398438 9.601562 10.398438 9.378906 10.578125 9.199219 10.800781 9.199219 11.019531 9.199219 11.199219 9.378906 11.199219 9.601562zM12.398438 8.398438C12.398438 8.621094 12.222656 8.800781 12 8.800781 11.777344 8.800781 11.601562 8.621094 11.601562 8.398438 11.601562 8.179688 11.777344 8 12 8 12.222656 8 12.398438 8.179688 12.398438 8.398438zM13.601562 9.601562C13.601562 9.820312 13.421875 10 13.199219 10 12.980469 10 12.800781 9.820312 12.800781 9.601562 12.800781 9.378906 12.980469 9.199219 13.199219 9.199219 13.421875 9.199219 13.601562 9.378906 13.601562 9.601562zM12.398438 10.800781C12.398438 11.019531 12.222656 11.199219 12 11.199219 11.777344 11.199219 11.601562 11.019531 11.601562 10.800781 11.601562 10.578125 11.777344 10.398438 12 10.398438 12.222656 10.398438 12.398438 10.578125 12.398438 10.800781zM11.199219 12C11.199219 12.222656 11.019531 12.398438 10.800781 12.398438 10.578125 12.398438 10.398438 12.222656 10.398438 12 10.398438 11.777344 10.578125 11.601562 10.800781 11.601562 11.019531 11.601562 11.199219 11.777344 11.199219 12zM12.398438 13.199219C12.398438 13.421875 12.222656 13.601562 12 13.601562 11.777344 13.601562 11.601562 13.421875 11.601562 13.199219 11.601562 12.980469 11.777344 12.800781 12 12.800781 12.222656 12.800781 12.398438 12.980469 12.398438 13.199219zM13.601562 12C13.601562 12.222656 13.421875 12.398438 13.199219 12.398438 12.980469 12.398438 12.800781 12.222656 12.800781 12 12.800781 11.777344 12.980469 11.601562 13.199219 11.601562 13.421875 11.601562 13.601562 11.777344 13.601562 12zM13.601562 12"/>
</svg>

<svg xmlns="http://www.w3.org/2000/svg" width="32" height="32" viewBox="0 0 24 24">
    <path d="M20.195.598l-.89.125.144-.723H5.086l-.164.66C4.742.59 4.52.504 4.305.418L3.992.297.484 5.914l.418 1.262c-.101-.051-.207-.11-.316-.164L0 6.707v6.04c0 .35.121.694.344.972l1.265 1.547.11.132.172.012c.375.027.754.055 1.113.078l-1.149.457L.085 21a1.492 1.492 0 0 0-.085.508v.957C0 23.309.688 24 1.535 24h8.508c.117 0 .238-.016.355-.043 2.59-.617 4.977-1.2 5.989-1.445l.222-.055.067-.223.117-.402.2.691 2.976 1.34c.199.09.41.137.629.137h1.867c.848 0 1.535-.691 1.535-1.535V19.53c0-.207-.04-.41-.129-.617l-2.039-4.285c-.004-.024-.012-.047-.016-.074l-.05-.172-1.16-.555 1.148-.144.094-.204a.826.826 0 0 1 .093-.156l1.711-2.09c.223-.273.348-.62.348-.972V6.684zM18.473.8l-.176.875 1.496-.215 3.086 4.937H14.8V.801zM12 .8h2v5.597h-4V.801zm-2 6.398h.398a.401.401 0 0 0 .8 0h1.603a.401.401 0 1 0 .8 0H14v6.235l-.398-.399L12 14.633l-1.602-1.598-.398.399zM4.32 1.285c.399.156.735.29.735.29l.422.163.234-.937h3.488v5.597H1.49l-.13-.378zm18.715 9.442l-1.71 2.09c-.032.038-.063.081-.095.124l-3.433.43 3.297 1.578.011.024 2.036 4.27c.039.093.058.187.058.288v2.934a.734.734 0 0 1-.734.734h-1.867a.742.742 0 0 1-.301-.062l-2.637-1.192-.851-2.965-.391 1.305s-.234.77-.445 1.504c-1.11.273-3.348.816-5.762 1.39a.821.821 0 0 1-.168.02H1.535a.673.673 0 0 1-.152-.015l.898-.903a.396.396 0 0 0 0-.562.396.396 0 0 0-.562 0l-.903.898a.673.673 0 0 1-.015-.152v-.957c0-.082.011-.164.039-.242l1.648-4.711 4.125-1.649-1.789-.105s-1.363-.082-2.703-.176c-.312-.379-.715-.871-1.156-1.414a.741.741 0 0 1-.164-.465V8.027l.61.325.89.48-.547-1.633h7.445v8.168l1.2-1.203L12 15.766l1.602-1.602 1.199 1.203V7.2h8.398v3.063a.741.741 0 0 1-.164.465zm0 0"/>
    <path d="M12.398 1.2a.398.398 0 1 1-.796 0 .398.398 0 1 1 .796 0zm0 0M11.2 2.398a.401.401 0 1 1-.803.003.401.401 0 0 1 .802-.003zm0 0M11.2 4.8a.4.4 0 1 1-.801-.003.4.4 0 0 1 .8.004zm0 0M12.398 3.602a.398.398 0 1 1-.796 0 .398.398 0 1 1 .796 0zm0 0M13.602 2.398a.401.401 0 1 1 0 0zm0 0M13.602 4.8a.401.401 0 1 1-.802-.004.401.401 0 0 1 .802.005zm0 0M12.398 6a.395.395 0 0 1-.398.398.395.395 0 0 1-.398-.398c0-.223.175-.398.398-.398.223 0 .398.175.398.398zm0 0M11.2 9.602a.4.4 0 1 1-.801-.004.4.4 0 0 1 .8.004zm0 0M12.398 8.398a.398.398 0 1 1-.796 0 .398.398 0 1 1 .796 0zm0 0M13.602 9.602a.401.401 0 1 1-.802-.005.401.401 0 0 1 .802.005zm0 0M12.398 10.8a.398.398 0 1 1-.796 0 .398.398 0 1 1 .796 0zm0 0M11.2 12c0 .223-.18.398-.4.398a.398.398 0 1 1 0-.796c.22 0 .4.175.4.398zm0 0M12.398 13.2a.398.398 0 1 1-.796 0 .398.398 0 1 1 .796 0zm0 0M13.602 12c0 .223-.18.398-.403.398a.398.398 0 1 1 0-.796c.223 0 .403.175.403.398zm0 0"/>
</svg>
